X:78
%%etbk:tnset id:27,pos:1,rep:3x,ant:
%%etbk:wsite http://www.thesession.org/tunes/display/98
%%etbk:pldat 2015-03-24T16:33,2014-04-30T16:45,2014-04-27T14:05,2014-02-05T16:39,2013-05-22T15:54,2013-05-15T16:06,2013-04-30T16:09
T: Sally Gardens, The
H: Created 2013-02-19 /  Last Modified 2014-04-27
M: 4/4
L: 1/8
R: reel
K: Gmaj
|: "G"!2!G2!1!DG !4!B2!1!G!2!B | !4!d!2!BeB dBAB | !4!d2!2!(3Bc^!1!d !2!efge | "D"!1!d!3!BAB !1!G!2!E!1!DE |
"G"!3!G2!1!GA !3!BA!1!G!2!B | !4!d2eB dBAB | !4!d2!2!(3Bc^!1!d  !2!efge | "D"!1!d!3!BAB "G"!1!G4:|
|: "G"!1!d!3!ggf g2!1!d!2!e | !3!g2!5!bg !4!ag!1!e!3!g | "D"!1!e!4!aag a2!1!e!3!g | !4!a2bg ag!1!e!3!g |
"G"!1!d!3!ggf g2!1!d!2!e | !3!g2!5!bg ag!1!e!3!g | !1!d2!2!B!1!d !2!efge | "D"!1!d!3!BAB "G"!1!G4:|


